X: 92
T: Morrison's Jig
R: jig
Z: 2012 John Chambers <jc@trillian.mit.edu>
B: "100 Essential Irish Session Tunes" 1995 Dave Mallinson, ed.
M: 6/8
L: 1/8
K: Edor
|:\
"Em"E3 B3 | "Em"E2B "D"AFD | "Em"EBE B2c | "Bm"dcB "D"AFD |\
"Em"EDE BEB | "Em"E2B "D"AFD | "G"GBG "D"FGA |1 "Bm"dAG "D"FED :|2 "D"dAG FGA |]
"Em"Bee fee | "Em"aee "D"fed | "Em"Bee fee | "D"fag fed |\
"Em"Bee fee | "Em"aee "D"fed | "G"gfe d2A | "G"BAG "D"FGA |]
"Em"Bee fee | "Em"aee "D"fed | "Em"Bee fee | "D"faf "D7"def |\
"G"g3 gfe | "D"def "G"gfg | "A"edc "D"d2A | "Bm"BAG FED |]
